X:22501
T:Out On The Ocean
R:Jig
B:Tuneworks Tunebook 2 (https://www.tuneworks.co.uk/)
G:Tuneworks
Z:Jon Warbrick <jon.warbrick@googlemail.com>
M:6/8
L:1/8
K:G
|: "G" D2 B BAG | BdB ABA | "C" GED G2 A | "D" BAB AGE |
"G" D2 B BAG | BdB ABA | "C" GED G2 A |1 "D" .BGF"G" GFE :|2 "D" BGF"G" GBd ||
|: "Em" e2 e edB | ege edB | "D" d2 d def | gfe dBA |
"G" G2 A B2 d | "C" ege"G" dBA | "C" GED G2 A |1 "D" .BGF"G" GBd :|2 "D" BGF"G" G3 |]